cssgg/chevron-double-down-r.svg

<svg
  width="24"
  height="24"
  viewBox="0 0 24 24"
  fill="none"
  xmlns="http://www.w3.org/2000/svg"
>
  <path
    d="M7.75732 8.46448L9.17154 7.05026L12 9.87869L14.8284 7.05029L16.2426 8.46451L12 12.7071L7.75732 8.46448Z"
    fill="currentColor"
  />
  <path
    d="M9.17154 11.2929L7.75732 12.7071L11.9999 16.9498L16.2426 12.7071L14.8284 11.2929L12 14.1213L9.17154 11.2929Z"
    fill="currentColor"
  />
  <path
    fill-rule="evenodd"
    clip-rule="evenodd"
    d="M1 5C1 2.79086 2.79086 1 5 1H19C21.2091 1 23 2.79086 23 5V19C23 21.2091 21.2091 23 19 23H5C2.79086 23 1 21.2091 1 19V5ZM5 3H19C20.1046 3 21 3.89543 21 5V19C21 20.1046 20.1046 21 19 21H5C3.89543 21 3 20.1046 3 19V5C3 3.89543 3.89543 3 5 3Z"
    fill="currentColor"
  />
</svg>

<svg viewBox="0 0 24 24" xmlns="http://www.w3.org/2000/svg"><g><path d="M7.75 8.46l1.41-1.42 2.82 2.82 2.82-2.83 1.41 1.41 -4.25 4.24 -4.25-4.25Z"/><path d="M9.17 11.29L7.75 12.7l4.24 4.24 4.24-4.25 -1.42-1.42 -2.83 2.82 -2.83-2.83Z"/><path fill-rule="evenodd" d="M1 5c0-2.21 1.79-4 4-4h14c2.2 0 4 1.79 4 4v14c0 2.2-1.8 4-4 4H5c-2.21 0-4-1.8-4-4V5Zm4-2h14c1.1 0 2 .89 2 2v14c0 1.1-.9 2-2 2H5c-1.11 0-2-.9-2-2V5c0-1.11.89-2 2-2Z"/></g></svg>
